svg/access_point_check.svg

<svg xmlns="http://www.w3.org/2000/svg" viewBox="0 0 24 24"><path d="m20.59 14.84 1.16 1.41L17 21l-2.75-3 1.16-1.16L17 18.43zm-1.52-9.91-1.41 1.41A7.96 7.96 0 0 1 20 12v.34c.68.25 1.33.62 1.88 1.09.07-.47.12-.93.12-1.43 0-2.76-1.12-5.26-2.93-7.07m-3.11 7.43c.64-.23 1.32-.36 2.04-.36 0-1.65-.67-3.15-1.76-4.24l-1.41 1.41A4 4 0 0 1 16 12c0 .12-.03.24-.04.36M12 10c-1.1 0-2 .9-2 2s.9 2 2 2 2-.9 2-2-.9-2-2-2M6.34 6.34 4.93 4.93C3.12 6.74 2 9.24 2 12s1.12 5.26 2.93 7.07l1.41-1.41A7.94 7.94 0 0 1 4 12c0-2.21.89-4.22 2.34-5.66m1.42 1.42C6.67 8.85 6 10.35 6 12s.67 3.15 1.76 4.24l1.41-1.41C8.45 14.11 8 13.11 8 12s.45-2.11 1.17-2.83z"/></svg>

<?xml version="1.0" encoding="UTF-8"?><!DOCTYPE svg PUBLIC "-//W3C//DTD SVG 1.1//EN" "http://www.w3.org/Graphics/SVG/1.1/DTD/svg11.dtd"><svg xmlns="http://www.w3.org/2000/svg" xmlns:xlink="http://www.w3.org/1999/xlink" version="1.1" id="mdi-access-point-check" width="24" height="24" viewBox="0 0 24 24"><path d="M20.59 14.84L21.75 16.25L17 21L14.25 18L15.41 16.84L17 18.43L20.59 14.84M19.07 4.93L17.66 6.34C19.11 7.78 20 9.79 20 12V12.34C20.68 12.59 21.33 12.96 21.88 13.43C21.95 12.96 22 12.5 22 12C22 9.24 20.88 6.74 19.07 4.93M15.96 12.36C16.6 12.13 17.28 12 18 12C18 10.35 17.33 8.85 16.24 7.76L14.83 9.17C15.55 9.89 16 10.89 16 12C16 12.12 15.97 12.24 15.96 12.36M12 10C10.9 10 10 10.9 10 12S10.9 14 12 14 14 13.1 14 12 13.1 10 12 10M6.34 6.34L4.93 4.93C3.12 6.74 2 9.24 2 12S3.12 17.26 4.93 19.07L6.34 17.66C4.89 16.22 4 14.22 4 12C4 9.79 4.89 7.78 6.34 6.34M7.76 7.76C6.67 8.85 6 10.35 6 12S6.67 15.15 7.76 16.24L9.17 14.83C8.45 14.11 8 13.11 8 12S8.45 9.89 9.17 9.17L7.76 7.76Z" /></svg>
